build/svg/cmd/32/subscript.svg

<?xml version="1.0" encoding="UTF-8" standalone="no"?>
<svg
   xmlns:dc="http://purl.org/dc/elements/1.1/"
   xmlns:cc="http://creativecommons.org/ns#"
   xmlns:rdf="http://www.w3.org/1999/02/22-rdf-syntax-ns#"
   xmlns:svg="http://www.w3.org/2000/svg"
   xmlns="http://www.w3.org/2000/svg"
   xmlns:sodipodi="http://sodipodi.sourceforge.net/DTD/sodipodi-0.dtd"
   xmlns:inkscape="http://www.inkscape.org/namespaces/inkscape"
   viewBox="0 0 32 32"
   version="1.1"
   id="svg6"
   sodipodi:docname="subscript.svg"
   inkscape:version="0.92.5 (2060ec1f9f, 2020-04-08)"
   inkscape:export-filename="/home/jupiter007/Libreoffice yaru theme fullcolor/build/cmd/32/subscript.png"
   inkscape:export-xdpi="96"
   inkscape:export-ydpi="96">
  <metadata
     id="metadata12">
    <rdf:RDF>
      <cc:Work
         rdf:about="">
        <dc:format>image/svg+xml</dc:format>
        <dc:type
           rdf:resource="http://purl.org/dc/dcmitype/StillImage" />
      </cc:Work>
    </rdf:RDF>
  </metadata>
  <defs
     id="defs10" />
  <sodipodi:namedview
     pagecolor="#ffffff"
     bordercolor="#666666"
     borderopacity="1"
     objecttolerance="10"
     gridtolerance="10"
     guidetolerance="10"
     inkscape:pageopacity="0"
     inkscape:pageshadow="2"
     inkscape:window-width="1920"
     inkscape:window-height="1011"
     id="namedview8"
     showgrid="true"
     inkscape:zoom="10.429825"
     inkscape:cx="-10.82424"
     inkscape:cy="7.5881078"
     inkscape:window-x="0"
     inkscape:window-y="32"
     inkscape:window-maximized="1"
     inkscape:current-layer="svg6">
    <inkscape:grid
       type="xygrid"
       id="grid827" />
  </sodipodi:namedview>
  <path
     style="opacity:0.6;fill:#000000;fill-opacity:1;stroke:#000000;stroke-width:2;stroke-linejoin:round;stroke-miterlimit:4;stroke-dasharray:none"
     d="M 12 6 L 3 26 L 6 26 L 8.9082031 20 L 18 20 L 19.091797 20 L 22.300781 20 L 16 6 L 14 6 L 12 6 z M 14 8.4023438 L 17.849609 17 L 14 17 L 10.150391 17 L 14 8.4023438 z "
     id="path833" />
  <path
     style="fill:#ffffff;fill-opacity:1"
     d="M 12 6 L 3 26 L 6 26 L 8.9082031 20 L 18 20 L 19.091797 20 L 22.300781 20 L 16 6 L 14 6 L 12 6 z M 14 8.4023438 L 17.849609 17 L 14 17 L 10.150391 17 L 14 8.4023438 z "
     id="path2-3" />
  <path
     inkscape:connector-curvature="0"
     style="opacity:0.6;fill:#000000;fill-opacity:1;stroke:#000000;stroke-width:2;stroke-linejoin:round;stroke-miterlimit:4;stroke-dasharray:none"
     id="path825"
     d="m 20,20 v 10 h 1 4 A 3,3 0 0 0 28,27 3,3 0 0 0 26.253906,24.277344 2.5,2.5 0 0 0 27,22.5 2.5,2.5 0 0 0 24.599609,20.003906 v -0.0039 H 21 Z m 1,1 h 3.5 A 1.5,1.5 0 0 1 26,22.5 1.5,1.5 0 0 1 24.5,24 H 21 Z m 0,4 h 4 a 2,2 0 0 1 2,2 2,2 0 0 1 -2,2 h -4 z" />
  <path
     inkscape:connector-curvature="0"
     d="m 20,20 v 10 h 1 4 A 3,3 0 0 0 28,27 3,3 0 0 0 26.253906,24.277344 2.5,2.5 0 0 0 27,22.5 2.5,2.5 0 0 0 24.599609,20.003906 v -0.0039 H 21 Z m 1,1 h 3.5 A 1.5,1.5 0 0 1 26,22.5 1.5,1.5 0 0 1 24.5,24 H 21 Z m 0,4 h 4 a 2,2 0 0 1 2,2 2,2 0 0 1 -2,2 h -4 z"
     id="path4"
     style="fill:#aee3f8;fill-opacity:1" />
</svg>

<svg xmlns="http://www.w3.org/2000/svg" viewBox="0 0 32 32"><path d="M12 6L3 26h3l2.908-6h13.393L16 6h-4zm2 2.402L17.85 17h-7.7L14 8.402z" opacity=".6" stroke="#000" stroke-width="2" stroke-linejoin="round"/><path d="M12 6L3 26h3l2.908-6h13.393L16 6h-4zm2 2.402L17.85 17h-7.7L14 8.402z" fill="#fff"/><path d="M20 20v10h5a3 3 0 003-3 3 3 0 00-1.746-2.723A2.5 2.5 0 0027 22.5a2.5 2.5 0 00-2.4-2.496V20H21zm1 1h3.5a1.5 1.5 0 011.5 1.5 1.5 1.5 0 01-1.5 1.5H21zm0 4h4a2 2 0 012 2 2 2 0 01-2 2h-4z" opacity=".6" stroke="#000" stroke-width="2" stroke-linejoin="round"/><path d="M20 20v10h5a3 3 0 003-3 3 3 0 00-1.746-2.723A2.5 2.5 0 0027 22.5a2.5 2.5 0 00-2.4-2.496V20H21zm1 1h3.5a1.5 1.5 0 011.5 1.5 1.5 1.5 0 01-1.5 1.5H21zm0 4h4a2 2 0 012 2 2 2 0 01-2 2h-4z" fill="#aee3f8"/></svg>
